X: 32260
T: Pick Of The Litter
R: reel
M: 4/4
K: Edorian
G3 A Be e2|gefe gefe|GFGA Be e/e/e|dBAF G2 AF|
GFGA Be e/e/e|gefg e2 ef|gefd egfe|1 dBAF G2:|2 dBAF E2-||
G2 FE FDA,D|DEFG AFGF|EFGB eBce|dBAF G/G/G AF|
G/G/G FE FD D/D/D|D2 E/F/G A2 GF|1 EFGB e2 Be|dBAF E2-:|
2 E^DEG B^ABe|dB A/G/F E2||

